who-are-we-icons/description-logo.svg

<svg height="100" viewBox="0 0 100 100" width="100" xmlns="http://www.w3.org/2000/svg"><g fill="none" fill-rule="evenodd"><path d="m25 50c-13.8071187 0-25-11.1928813-25-25s11.1928813-25 25-25 25 11.1928813 25 25-11.1928813 25-25 25z"/><path d="m42.7370376 83.2503308-.4319244 1.2601817c-.3735581 1.0898923-.928334 1.957092-1.6643444 2.6016252-.7360103.6445332-1.8707563 1.2061924-3.4042718 1.6849946-1.4692073.4377963-2.4830574.8574926-3.0415808 1.2591014-.5585233.4016088-.9506248.9316436-1.1763161 1.5901202-.25293.7379479-.176435 1.3944697.2294872 1.969585s1.0910321 1.0320788 2.0553502 1.3709041c1.6819501.5909744 3.7900119.7083843 6.3242486.3522331l.5550538 4.3736155c-2.9869029.5405484-5.8819361.3183474-8.6851863-.6666097-2.3098782-.8116048-3.9533665-2.0187095-4.9305144-3.6213502-.9771478-1.6026407-1.1446927-3.3405612-.5026397-5.2138135.4280353-1.248835 1.0780174-2.2288638 1.9499658-2.9401159.8719485-.7112521 2.287373-1.3587327 4.2463162-1.9424611 1.3527254-.4278425 2.2440282-.8015567 2.6739353-1.1211537.429907-.319597.7615925-.8199794.9950663-1.5011621l.3502089-1.0217689zm2.5344124-5.634972c-.3268634.9536558-.8262415 1.5859185-1.4981494 1.8968071-.671908.3108886-1.4900087.2969204-2.4543268-.0419049-.930679-.3270058-1.5654978-.8298993-1.9044752-1.5086955s-.3489255-1.4836571-.0298447-2.4146067c.3074072-.8968906.8075278-1.5129923 1.5003768-1.8483237s1.4989945-.341464 2.4184605-.018398c.9418921.3309457 1.5841477.8396322 1.926786 1.5260748.3426383.6864427.3563624 1.4894503.0411728 2.4090469zm-26.8676098-16.9241871-1.2900821.2704837c-1.1157524.233933-2.1355474.1961712-3.0594157-.1132865-.9238683-.3094578-1.9818508-1.008037-3.1739795-2.0957588-1.12438949-1.0528355-2.00001095-1.7190853-2.62689059-1.9987694-.62687964-.2796842-1.27735988-.3488579-1.95146024-.2075234-.7554573.1583921-1.27299749.5614296-1.55263609 1.2091246-.27963861.647695-.31596741 1.4775359-.10898749 2.4895475.36101149 1.7651366 1.34204845 3.6579607 2.94314031 5.6785289l-3.42444533 2.7244748c-1.98950625-2.3195695-3.28508284-4.950262-3.88676865-7.8921563-.49578911-2.4241209-.31458624-4.4716527.54361404-6.1426568.85820028-1.671004 2.24612925-2.7075267 4.16382855-3.109599 1.2784662-.2680483 2.44274721-.205356 3.49287798.1880787 1.05013076.3934347 2.32477001 1.2920289 3.82395611 2.6958095 1.0562392.9566745 1.8300479 1.5399588 2.3214494 1.7498703.4914015.2099116 1.0857659.2417628 1.7831111.0955547l1.0460126-.2193111zm6.0777948-.6852323c-.9762833.2046913-1.7684468.0946594-2.3765143-.3300991-.6080675-.4247584-1.0155851-1.1431327-1.222565-2.1551444-.1997597-.9767089-.0987013-1.7863733.3031784-2.4290173.4018797-.6426441 1.0793286-1.0638687 2.032367-1.2636865.9181712-.1925073 1.6970102-.0735458 2.3365405.3568883s1.0579657 1.1281113 1.2553186 2.0930527c.2021665.9884765.1000075 1.8075755-.30648 2.4573218-.4064875.6497462-1.0804292 1.0733035-2.0218452 1.2706845zm.5282255-32.0159175-.8933486-.9803951c-.7726298-.8479134-1.2658179-1.7524572-1.4795793-2.7136583-.2137613-.9612012-.1671421-2.2391864.1398592-3.8339941.3123485-1.5180505.425506-2.6211128.339476-3.30922-.0860301-.6881072-.3624395-1.2882924-.8292366-1.8005734-.5231347-.5741081-1.1308764-.81574-1.8232431-.7249029-.6923668.090837-1.413649.4866456-2.1638683 1.1874375-1.3085221 1.2223116-2.4058577 3.0485086-3.2920398 5.4786458l-4.0701111-1.5691263c.9393079-2.9212239 2.4993735-5.4003917 4.6802436-7.4375777 1.797037-1.6786413 3.6238668-2.57577929 5.480544-2.69144094 1.8566773-.11566165 3.4489708.55517304 4.7769281 2.01252434.8853049.9715675 1.4317912 2.0143515 1.6394753 3.1283832.2076841 1.1140318.1032953 2.6830578-.3131693 4.7071251-.2660301 1.4093821-.3613759 2.3813551-.2860402 2.915948.0753356.534593.354446 1.0668544.8373396 1.5968003l.7243367.7949149zm3.7099945 4.9221526c-.676051-.7419243-.9908303-1.4861193-.9443474-2.2326073.0464828-.7464881.444828-1.4701172 1.1950473-2.1709092.7240489-.6763458 1.4615824-1.0055841 2.2126228-.987725.7510403.0178591 1.4565271.3889129 2.1164817 1.1131723.6358099.6977621.9361674 1.434991.9010816 2.2117089s-.4102858 1.4991645-1.1256112 2.1673615c-.7327724.6844945-1.4788604 1.0176362-2.2382866.9994353-.7594262-.018201-1.4650819-.3850095-2.1169882-1.1004365zm27.4044708-15.9826319.3717248-1.2797083c.3214933-1.1067802.8345461-1.9999254 1.5391739-2.6794623.7046277-.6795369 1.8114582-1.2956606 3.3205247-1.8483896 1.4467751-.508647 2.4395747-.9770996 2.9784285-1.40537185.5388537-.42827222.9053929-.97673996 1.0996285-1.64541968.2176777-.74938245.1101674-1.40143338-.3225342-1.95617234-.4327016-.55473897-1.138672-.97790283-2.1179322-1.26950428-1.708012-.50860718-3.8192096-.52350006-6.3336561-.0446791l-.7616193-4.34162373c2.9578556-.68499075 5.8600833-.60364803 8.70677.2440306 2.3456698.6984872 4.0444541 1.82438337 5.0964039 3.3777223 1.0519497 1.55333894 1.3016375 3.28112175.7490709 5.18340027-.3683778 1.26818571-.9711819 2.27865391-1.8084303 3.03143511-.8372485.7527811-2.2203687 1.468259-4.1494021 2.146455-1.3308988.4930476-2.2034706.9096193-2.6177415 1.2497277-.4142709.3401083-.7218685.8560235-.9228018 1.5477612l-.3013985 1.0376013zm-2.2645325 5.7515738c.2813066-.9684327.7501559-1.6242208 1.4065617-1.967384.6564058-.3431631 1.4742266-.3689436 2.4534868-.0773421.9451.2814293 1.603013.7529127 1.9737589 1.4144645s.4188137 1.465003.1442048 2.4103778c-.2645622.9107879-.7349187 1.5504697-1.4110835 1.9190645-.6761648.3685949-1.4810917.4138723-2.414805.1358338-.9564867-.2848201-1.6221025-.7617287-1.9968673-1.4307404-.3747648-.6690116-.4265164-1.4704283-.1552564-2.4042741zm27.6311385 15.6167705 1.275898-.332374c1.1034849-.2874599 2.1238991-.2989071 3.0612731-.0343416.937374.2645654 2.0270104.9113451 3.2689419 1.9403584 1.1726286.9974324 2.0785903 1.6207113 2.7179123 1.8698552.639322.249144 1.2923175.2868785 1.9590063.1132048.7471513-.1946344 1.2451497-.6221662 1.4940102-1.2826084.2488606-.6604421.246121-1.4910932-.0082186-2.491978-.4436158-1.7457294-1.5125587-3.5891088-3.206861-5.5301937l3.2924298-2.8864827c2.096338 2.2210208 3.5141655 4.7862672 4.253525 7.6958162.6092322 2.3974683.5245292 4.4514136-.2541104 6.1618975-.7786401 1.7104839-2.1162474 2.8127452-4.0128621 3.3068171-1.2644098.3293812-2.4303185.322892-3.4977612-.0194678-1.0674426-.3423598-2.3828966-1.1784821-3.9464014-2.508392-1.1000331-.9046662-1.9003957-1.4499822-2.4011118-1.6359643-.5007162-.1859821-1.0959044-.1891419-1.7855824-.0094794l-1.0345119.2694924zm-6.0386743.977476c.9655493-.2515275 1.761989-.179812 2.389343.2151487s1.0681942 1.092873 1.3225339 2.0937579c.2454673.9659702.1826017 1.7795883-.1885988 2.4408787-.3712004.6612904-1.0280708 1.1146982-1.9706308 1.3602369-.9080762.2365556-1.6916265.1552782-2.3506745-.2438348-.659048-.3991129-1.1098202-1.0758253-1.3523302-2.0301573-.2484248-.9776085-.1849036-1.8007037.1905655-2.4693104.3754691-.6686066 1.0287265-1.1241753 1.9597919-1.3667197zm.97139 32.0013109.9378052.9368679c.8110789.8102682 1.3456488 1.6903817 1.6037259 2.6403671.258077.9499855.2707431 2.2287778.0379986 3.8364154-.2416434 1.531219-.3035499 2.6384427-.1857212 3.3217041.1178287.6832615.4217519 1.2696519.9117787 1.7591889.549168.5486191 1.1674395.7611082 1.8548332.6374738s1.3895358-.5532783 2.1064472-1.2889445c1.2504269-1.2831387 2.2619102-3.159463 3.0344803-5.6290293l4.138355 1.3740083c-.8028757 2.9626362-2.2463143 5.5131983-4.3303591 7.6517628-1.7172529 1.7621772-3.5004881 2.7451276-5.3497589 2.9488809-1.8492709.2037533-3.4709029-.3906853-4.8649446-1.7833337-.9293612-.9284323-1.523578-1.9441013-1.782668-3.0470377-.2590901-1.1029364-.22754-2.6751937.0946513-4.7168191.2004128-1.4204696.2506031-2.395902.1505723-2.9263265-.1000307-.5304244-.4035037-1.0488376-.910428-1.5552552l-.7603826-.7596226zm-3.9340464-4.7404511c.709694.7089846 1.0586196 1.4374031 1.0467873 2.1852773s-.3761987 1.4896333-1.0931101 2.2252995c-.6919029.7100034-1.4133639 1.0739226-2.1644045 1.0917684s-1.4729484-.3192782-2.1657449-1.0113823c-.6674503-.6667831-1.0016471-1.3889285-1.0026004-2.1664577-.0009534-.7775292.3403482-1.5170073 1.0239149-2.2184565.700239-.7185576 1.4300642-1.0867824 2.1894972-1.1046852.7594331-.0179028 1.4813127.3149727 2.1656605.9986365z" fill="#0d111a"/></g></svg>

<?xml version="1.0" encoding="UTF-8"?>
<svg width="100px" height="100px" viewBox="0 0 100 100" version="1.1" xmlns="http://www.w3.org/2000/svg" xmlns:xlink="http://www.w3.org/1999/xlink">
    <!-- Generator: Sketch 52.2 (67145) - http://www.bohemiancoding.com/sketch -->
    <title>Group</title>
    <desc>Created with Sketch.</desc>
    <g id="Page-1" stroke="none" stroke-width="1" fill="none" fill-rule="evenodd">
        <g id="Group">
            <path d="M25,50 C11.1928813,50 0,38.8071187 0,25 C0,11.1928813 11.1928813,0 25,0 C38.8071187,0 50,11.1928813 50,25 C50,38.8071187 38.8071187,50 25,50 Z" id="Oval"></path>
            <path d="M42.7370376,83.2503308 L42.3051132,84.5105125 C41.9315551,85.6004048 41.3767792,86.4676045 40.6407688,87.1121377 C39.9047585,87.7566709 38.7700125,88.3183301 37.236497,88.7971323 C35.7672897,89.2349286 34.7534396,89.6546249 34.1949162,90.0562337 C33.6363929,90.4578425 33.2442914,90.9878773 33.0186001,91.6463539 C32.7656701,92.3843018 32.8421651,93.0408236 33.2480873,93.6159389 C33.6540095,94.1910542 34.3391194,94.6480177 35.3034375,94.986843 C36.9853876,95.5778174 39.0934494,95.6952273 41.6276861,95.3390761 L42.1827399,99.7126916 C39.195837,100.25324 36.3008038,100.031039 33.4975536,99.0460819 C31.1876754,98.2344771 29.5441871,97.0273724 28.5670392,95.4247317 C27.5898914,93.822091 27.4223465,92.0841705 28.0643995,90.2109182 C28.4924348,88.9620832 29.1424169,87.9820544 30.0143653,87.2708023 C30.8863138,86.5595502 32.3017383,85.9120696 34.2606815,85.3283412 C35.6134069,84.9004987 36.5047097,84.5267845 36.9346168,84.2071875 C37.3645238,83.8875905 37.6962093,83.3872081 37.9296831,82.7060254 L38.279892,81.6842565 L42.7370376,83.2503308 Z M45.27145,77.6153588 C44.9445866,78.5690146 44.4452085,79.2012773 43.7733006,79.5121659 C43.1013926,79.8230545 42.2832919,79.8090863 41.3189738,79.470261 C40.3882948,79.1432552 39.753476,78.6403617 39.4144986,77.9615655 C39.0755212,77.2827693 39.0655731,76.4779084 39.3846539,75.5469588 C39.6920611,74.6500682 40.1921817,74.0339665 40.8850307,73.6986351 C41.5778797,73.3633037 42.3840252,73.3571711 43.3034912,73.6802371 C44.2453833,74.0111828 44.8876389,74.5198693 45.2302772,75.2063119 C45.5729155,75.8927546 45.5866396,76.6957622 45.27145,77.6153588 Z M18.4038402,60.6911717 L17.1137581,60.9616554 C15.9980057,61.1955884 14.9782107,61.1578266 14.0543424,60.8483689 C13.1304741,60.5389111 12.0724916,59.8403319 10.8803629,58.7526101 C9.75597341,57.6997746 8.88035195,57.0335248 8.25347231,56.7538407 C7.62659267,56.4741565 6.97611243,56.4049828 6.30201207,56.5463173 C5.54655477,56.7047094 5.02901458,57.1077469 4.74937598,57.7554419 C4.46973737,58.4031369 4.43340857,59.2329778 4.64038849,60.2449894 C5.00139998,62.010126 5.98243694,63.9029501 7.5835288,65.9235183 L4.15908347,68.6479931 C2.16957722,66.3284236 0.874000632,63.6977311 0.272314822,60.7558368 C-0.223474286,58.3317159 -0.0422714192,56.2841841 0.815928858,54.61318 C1.67412914,52.942176 3.06205811,51.9056533 4.97975741,51.503581 C6.25822361,51.2355327 7.42250462,51.298225 8.47263539,51.6916597 C9.52276615,52.0850944 10.7974054,52.9836886 12.2965915,54.3874692 C13.3528307,55.3441437 14.1266394,55.927428 14.6180409,56.1373395 C15.1094424,56.3472511 15.7038068,56.3791023 16.401152,56.2328942 L17.4471646,56.0135831 L18.4038402,60.6911717 Z M24.481635,60.0059394 C23.5053517,60.2106307 22.7131882,60.1005988 22.1051207,59.6758403 C21.4970532,59.2510819 21.0895356,58.5327076 20.8825557,57.5206959 C20.682796,56.543987 20.7838544,55.7343226 21.1857341,55.0916786 C21.5876138,54.4490345 22.2650627,54.0278099 23.2181011,53.8279921 C24.1362723,53.6354848 24.9151113,53.7544463 25.5546416,54.1848804 C26.1941719,54.6153145 26.6126073,55.3129917 26.8099602,56.2779331 C27.0121267,57.2664096 26.9099677,58.0855086 26.5034802,58.7352549 C26.0969927,59.3850011 25.423051,59.8085584 24.481635,60.0059394 Z M25.0098605,27.9900219 L24.1165119,27.0096268 C23.3438821,26.1617134 22.850694,25.2571696 22.6369326,24.2959685 C22.4231713,23.3347673 22.4697905,22.0567821 22.7767918,20.4619744 C23.0891403,18.9439239 23.2022978,17.8408616 23.1162678,17.1527544 C23.0302377,16.4646472 22.7538283,15.864462 22.2870312,15.352181 C21.7638965,14.7780729 21.1561548,14.536441 20.4637881,14.6272781 C19.7714213,14.7181151 19.0501391,15.1139237 18.2999198,15.8147156 C16.9913977,17.0370272 15.8940621,18.8632242 15.00788,21.2933614 L10.9377689,19.7242351 C11.8770768,16.8030112 13.4371424,14.3238434 15.6180125,12.2866574 C17.4150495,10.6080161 19.2418793,9.71087811 21.0985565,9.59521646 C22.9552338,9.47955481 24.5475273,10.1503895 25.8754846,11.6077408 C26.7607895,12.5793083 27.3072758,13.6220923 27.5149599,14.736124 C27.722644,15.8501558 27.6182552,17.4191818 27.2017906,19.4432491 C26.9357605,20.8526312 26.8404147,21.8246042 26.9157504,22.3591971 C26.991086,22.8937901 27.2701964,23.4260515 27.75309,23.9559974 L28.4774267,24.7509123 L25.0098605,27.9900219 Z M28.719855,32.9121745 C28.043804,32.1702502 27.7290247,31.4260552 27.7755076,30.6795672 C27.8219904,29.9330791 28.2203356,29.20945 28.9705549,28.508658 C29.6946038,27.8323122 30.4321373,27.5030739 31.1831777,27.520933 C31.934218,27.5387921 32.6397048,27.9098459 33.2996594,28.6341053 C33.9354693,29.3318674 34.2358268,30.0690963 34.200741,30.8458142 C34.1656552,31.6225321 33.7904552,32.3449787 33.0751298,33.0131757 C32.3423574,33.6976702 31.5962694,34.0308119 30.8368432,34.012611 C30.077417,33.99441 29.3717613,33.6276015 28.719855,32.9121745 Z M56.1243258,16.9295426 L56.4960506,15.6498343 C56.8175439,14.5430541 57.3305967,13.6499089 58.0352245,12.970372 C58.7398522,12.2908351 59.8466827,11.6747114 61.3557492,11.1219824 C62.8025243,10.6133354 63.7953239,10.1448828 64.3341777,9.71661055 C64.8730314,9.28833833 65.2395706,8.73987059 65.4338062,8.07119087 C65.6514839,7.32180842 65.5439736,6.66975749 65.111272,6.11501853 C64.6785704,5.56027956 63.9726,5.1371157 62.9933398,4.84551425 C61.2853278,4.33690707 59.1741302,4.32201419 56.6596837,4.80083515 L55.8980644,0.459211419 C58.85592,-0.225779334 61.7581477,-0.144436614 64.6048344,0.703242021 C66.9505042,1.40172922 68.6492885,2.52762539 69.7012383,4.08096432 C70.753188,5.63430326 71.0028758,7.36208607 70.4503092,9.26436459 C70.0819314,10.5325503 69.4791273,11.5430185 68.6418789,12.2957997 C67.8046304,13.0485808 66.4215102,13.7640587 64.4924768,14.4422547 C63.161578,14.9353023 62.2890062,15.351874 61.8747353,15.6919824 C61.4604644,16.0320907 61.1528668,16.5480059 60.9519335,17.2397436 L60.650535,18.2773449 L56.1243258,16.9295426 Z M53.8597933,22.6811164 C54.1410999,21.7126837 54.6099492,21.0568956 55.266355,20.7137324 C55.9227608,20.3705693 56.7405816,20.3447888 57.7198418,20.6363903 C58.6649418,20.9178196 59.3228548,21.389303 59.6936007,22.0508548 C60.0643466,22.7124066 60.1124144,23.5158578 59.8378055,24.4612326 C59.5732433,25.3720205 59.1028868,26.0117023 58.426722,26.3802971 C57.7505572,26.748892 56.9456303,26.7941694 56.011917,26.5161309 C55.0554303,26.2313108 54.3898145,25.7544022 54.0150497,25.0853905 C53.6402849,24.4163789 53.5885333,23.6149622 53.8597933,22.6811164 Z M81.4909318,38.2978869 L82.7668298,37.9655129 C83.8703147,37.678053 84.8907289,37.6666058 85.8281029,37.9311713 C86.7654769,38.1957367 87.8551133,38.8425164 89.0970448,39.8715297 C90.2696734,40.8689621 91.1756351,41.492241 91.8149571,41.7413849 C92.4542791,41.9905289 93.1072746,42.0282634 93.7739634,41.8545897 C94.5211147,41.6599553 95.0191131,41.2324235 95.2679736,40.5719813 C95.5168342,39.9115392 95.5140946,39.0808881 95.259755,38.0800033 C94.8161392,36.3342739 93.7471963,34.4908945 92.052894,32.5498096 L95.3453238,29.6633269 C97.4416618,31.8843477 98.8594893,34.4495941 99.5988488,37.3591431 C100.208081,39.7566114 100.123378,41.8105567 99.3447384,43.5210406 C98.5660983,45.2315245 97.228491,46.3337858 95.3318763,46.8278577 C94.0674665,47.1572389 92.9015578,47.1507497 91.8341151,46.8083899 C90.7666725,46.4660301 89.4512185,45.6299078 87.8877137,44.2999979 C86.7876806,43.3953317 85.987318,42.8500157 85.4866019,42.6640336 C84.9858857,42.4780515 84.3906975,42.4748917 83.7010195,42.6545542 L82.6665076,42.9240466 L81.4909318,38.2978869 Z M75.4522575,39.2753629 C76.4178068,39.0238354 77.2142465,39.0955509 77.8416005,39.4905116 C78.4689545,39.8854723 78.9097947,40.5833846 79.1641344,41.5842695 C79.4096017,42.5502397 79.3467361,43.3638578 78.9755356,44.0251482 C78.6043352,44.6864386 77.9474648,45.1398464 77.0049048,45.3853851 C76.0968286,45.6219407 75.3132783,45.5406633 74.6542303,45.1415503 C73.9951823,44.7424374 73.5444101,44.065725 73.3019001,43.111393 C73.0534753,42.1337845 73.1169965,41.3106893 73.4924656,40.6420826 C73.8679347,39.973476 74.5211921,39.5179073 75.4522575,39.2753629 Z M76.4236475,71.2766738 L77.3614527,72.2135417 C78.1725316,73.0238099 78.7071015,73.9039234 78.9651786,74.8539088 C79.2232556,75.8038943 79.2359217,77.0826866 79.0031772,78.6903242 C78.7615338,80.2215432 78.6996273,81.3287669 78.817456,82.0120283 C78.9352847,82.6952898 79.2392079,83.2816802 79.7292347,83.7712172 C80.2784027,84.3198363 80.8966742,84.5323254 81.5840679,84.408691 C82.2714616,84.2850566 82.9736037,83.8554127 83.6905151,83.1197465 C84.940942,81.8366078 85.9524253,79.9602835 86.7249954,77.4907172 L90.8633504,78.8647255 C90.0604747,81.8273617 88.6170361,84.3779238 86.5329913,86.5164883 C84.8157384,88.2786655 83.0325032,89.2616159 81.1832324,89.4653692 C79.3339615,89.6691225 77.7123295,89.0746839 76.3182878,87.6820355 C75.3889266,86.7536032 74.7947098,85.7379342 74.5356198,84.6349978 C74.2765297,83.5320614 74.3080798,81.9598041 74.6302711,79.9181787 C74.8306839,78.4977091 74.8808742,77.5222767 74.7808434,76.9918522 C74.6808127,76.4614278 74.3773397,75.9430146 73.8704154,75.436597 L73.1100328,74.6769744 L76.4236475,71.2766738 Z M72.4896011,66.5362227 C73.1992951,67.2452073 73.5482207,67.9736258 73.5363884,68.7215 C73.5245561,69.4693742 73.1601897,70.2111333 72.4432783,70.9467995 C71.7513754,71.6568029 71.0299144,72.0207221 70.2788738,72.0385679 C69.5278332,72.0564137 68.8059254,71.7192897 68.1131289,71.0271856 C67.4456786,70.3604025 67.1114818,69.6382571 67.1105285,68.8607279 C67.1095751,68.0831987 67.4508767,67.3437206 68.1344434,66.6422714 C68.8346824,65.9237138 69.5645076,65.555489 70.3239406,65.5375862 C71.0833737,65.5196834 71.8052533,65.8525589 72.4896011,66.5362227 Z" id="?-?-?-?-?-?" fill="#0D111A"></path>
        </g>
    </g>
</svg>
